symbols/web/on_device_training/materialsymbolssharp/on_device_training_wght600gradN25fill1_24px.svg

<svg xmlns="http://www.w3.org/2000/svg" height="24" width="24"><path d="M11 17.075V16.05h2v1.025Zm0-1.6v-.75q-.475-.275-.738-.725Q10 13.55 10 13q0-.825.588-1.413Q11.175 11 12 11t1.413.587Q14 12.175 14 13q0 .55-.262 1-.263.45-.738.725v.75Zm5 .5L14.9 14.9q.275-.425.438-.912.162-.488.162-.988t-.15-.975q-.15-.475-.425-.9l1.075-1.1q.475.65.738 1.4Q17 12.175 17 13t-.262 1.575q-.263.75-.738 1.4Zm-7.975 0q-.5-.65-.762-1.4Q7 13.825 7 13q0-2.1 1.475-3.538Q9.95 8.025 12.075 8V6.875L14.35 8.75l-2.275 1.875V9.5q-1.475.025-2.525 1.037Q8.5 11.55 8.5 13q0 .5.15.988.15.487.425.912ZM3.75 23.2V.8h16.5v22.4Zm2.525-5.45h11.45V6.25H6.275Z"/></svg>

<svg xmlns="http://www.w3.org/2000/svg" height="24" width="24"><path d="M11 17.075V16.05H13V17.075ZM11 15.475V14.725Q10.525 14.45 10.262 14Q10 13.55 10 13Q10 12.175 10.588 11.587Q11.175 11 12 11Q12.825 11 13.413 11.587Q14 12.175 14 13Q14 13.55 13.738 14Q13.475 14.45 13 14.725V15.475ZM16 15.975 14.9 14.9Q15.175 14.475 15.338 13.988Q15.5 13.5 15.5 13Q15.5 12.5 15.35 12.025Q15.2 11.55 14.925 11.125L16 10.025Q16.475 10.675 16.738 11.425Q17 12.175 17 13Q17 13.825 16.738 14.575Q16.475 15.325 16 15.975ZM8.025 15.975Q7.525 15.325 7.263 14.575Q7 13.825 7 13Q7 10.9 8.475 9.462Q9.95 8.025 12.075 8V6.875L14.35 8.75L12.075 10.625V9.5Q10.6 9.525 9.55 10.537Q8.5 11.55 8.5 13Q8.5 13.5 8.65 13.988Q8.8 14.475 9.075 14.9ZM3.75 23.2V0.8H20.25V23.2ZM6.275 17.75H17.725V6.25H6.275Z"/></svg>
